!!!COM: Scriabin, Alexander
!!!OTL: Prelude
!!!OPR: 5 Preludes
!!!OPS: 16
!!!ONM: 5
!!!ODT: 1895
!!!AGN: Prelude
**kern	**kern	**dynam
*staff2	*staff1	*staff1/2
*Ipiano	*Ipiano	*
*clefF4	*clefG2	*
*k[f#c#g#d#a#e#]	*k[f#c#g#d#a#e#]	*
*F#:	*F#:	*
*M3/8	*M3/8	*
=1	=1	=1
*	*^	*
8CC#L	8.c#	16rc	.
.	.	[16E#	.
8GG#	.	4E#] 4B	.
.	16d#	.	.
8E#J	16g#LL	.	.
.	16a#JJ	.	.
=2	=2	=2	=2
8G#L	8.b	16rc	.
.	.	[16c#	.
8C#	.	4c#] 4e#	.
.	16cc#	.	.
8BJ	16cc##XLL	.	.
.	16dd#JJ	.	.
*clefG2	*	*	*
=3	=3	=3	=3
4dd#	16aa#LL	8rc	.
.	16gg#	.	.
.	16dd#	8rc	.
.	16b	.	.
*clefF4	*	*	*
8C#X 8c#X	16a#	8B 8e#	.
.	16g#JJ	.	.
=4	=4	=4	=4
4F# 4c#	16e#LL	4A#	.
.	16f#	.	.
.	16g#	.	.
.	16f#	.	.
8BB#X 8G#	16dd#J	8rc	.
.	32r	.	.
.	32d#Jkk	.	.
=5	=5	=5	=5
8CC#L	8.c#	16rc	.
.	.	[16E#	.
8GG#	.	4E#] 4Bn	.
.	16d#	.	.
8E#J	16g#LL	.	.
.	16a#JJ	.	.
=6	=6	=6	=6
8G#L	8.b	16rc	.
.	.	[16c#	.
8C#	.	4c#] 4e#	.
.	16cc#	.	.
8BJ	16cc##XLL	.	.
.	16dd#JJ	.	.
*clefG2	*	*	*
=7	=7	=7	=7
4dd#	16aa#LL	8rc	.
.	16gg#	.	.
.	16dd#	8rc	.
.	16b	.	.
*clefF4	*	*	*
8C#X 8c#X	16a#	8B 8e#	.
.	16g#JJ	.	.
=8	=8	=8	=8
8.F# 8.c#	16e#LL	4A#	.
.	16f#	.	.
.	16a#	.	.
16C#	16cc#JJ	.	.
8FF# 8A#	8f# 8ff#	8rc	.
=9	=9	=9	=9
8FF#L	8.f#	16rc	.
.	.	[16A#	.
8C#	.	4A#] 4en	.
.	16g#	.	.
8A#J	16cc#LL	.	.
.	16dd#JJ	.	.
=10	=10	=10	=10
8FF#L	8.f#	16rc	.
.	.	[16A#	.
8C#	.	4A#] 4en	.
.	16g#	.	.
8A#J	16cc#LL	.	.
.	16dd#JJ	.	.
=11	=11	=11	=11
8BBBL	4.cc#	16cc#LL	.
.	.	16f#	.
8BB	.	16d#	.
.	.	16F#	.
8F#J	.	16d#	.
.	.	16f#JJ	.
*	*v	*v	*
=12	=12	=12
32%3GGG#L	16cc#LL	.
.	16b	.
32%3GG#	.	.
.	16a#	.
32%3F#	16g#	.
.	16f#	.
32%3BJ	.	.
.	16d#JJ	.
=13	=13	=13
*	*^	*
8CC#L	8.c#	16rc	.
.	.	[16E#	.
8GG#	.	4E#] 4B	.
.	16d#	.	.
8E#J	16g#LL	.	.
.	16a#JJ	.	.
=14	=14	=14	=14
8G#L	8.b	16rc	.
.	.	[16c#	.
8C#	.	4c#] 4e#	.
.	16cc#	.	.
8BJ	16cc##XLL	.	.
.	16dd#JJ	.	.
*clefG2	*	*	*
=15	=15	=15	=15
4dd#	16aa#LL	8rc	.
.	16gg#	.	.
.	16dd#	8rc	.
.	16b	.	.
*clefF4	*	*	*
8C#X 8c#X	16a#	8B 8e#	.
.	16g#JJ	.	.
=16	=16	=16	=16
8.F# 8.c#	16e#LL	4A#	.
.	16f#	.	.
.	16a#	.	.
16C#	16cc#JJ	.	.
8FF# 8A#	8f# 8ff#	8rc	.
=17	=17	=17	=17
8FF#L	8.f#	16rc	.
.	.	[16A#	.
8C#	.	4A#] 4en	.
.	16g#	.	.
8A#J	16cc#LL	.	.
.	16dd#JJ	.	.
=18	=18	=18	=18
8FF#L	8.f#	16rc	.
.	.	[16A#	.
8C#	.	4A#] 4en	.
.	16g#	.	.
8A#J	16cc#LL	.	.
.	16dd#JJ	.	.
=19	=19	=19	=19
8BBBL	4.cc#	16cc#LL	.
.	.	16f#	.
8BB	.	16d#	.
.	.	16F#	.
8F#J	.	16d#	.
.	.	16f#JJ	.
*	*v	*v	*
=20	=20	=20
32%3GGG#L	16cc#LL	.
.	16b	.
32%3GG#	.	.
.	16a#	.
32%3F#	16g#	.
.	16f#	.
32%3BJ	.	.
.	16d#JJ	.
=21	=21	=21
*	*^	*
8CC#L	8.c#	16rc	.
.	.	[16E#	.
8GG#	.	4E#] 4B	.
.	16d#	.	.
8E#J	16g#LL	.	.
.	16a#JJ	.	.
=22	=22	=22	=22
8G#L	8.b	16rc	.
.	.	[16c#	.
8C#	.	4c#] 4e#	.
.	16cc#	.	.
8BJ	16cc##XLL	.	.
.	16dd#JJ	.	.
*clefG2	*	*	*
=23	=23	=23	=23
4dd#	16aa#LL	8rc	.
.	16gg#	.	.
.	16dd#	8rc	.
.	16b	.	.
*clefF4	*	*	*
8C#X 8c#X	16a#	8B 8e#	.
.	16g#JJ	.	.
=24	=24	=24	=24
8.F# 8.c#	16e#LL	4A#	.
.	16f#	.	.
.	16a#	.	.
16C#	16cc#JJ	.	.
8FF# 8A#	8f# 8ff#	8rc	.
*	*v	*v	*
==	==	==
*-	*-	*-
!!!system-decoration: {(*)}
!!!ENC: Bryan Jacob Bell
!!!END: November 2021 to April 2022
!!!PED: Günter Philipp
!!!PTL: Ausgewählte Klavierwerke (Edition Peters)
